X:1
T:He Hideth My Soul
T:He Hideth My Soul
T:William James Kirkpatrick
T:Frances Jane (Fanny) Crosby, 1890
T:Public Domain Courtesy of the Cyber Hymnal™
T:Public Domain Courtesy of the Cyber Hymnal™
C:William James Kirkpatrick
Z:Public Domain
Z:Courtesy of the Cyber Hymnal™
%%score ( 1 2 ) ( 3 4 )
L:1/8
Q:1/4=93
M:6/8
K:D
V:1 treble 
V:2 treble 
V:3 bass 
V:4 bass 
V:1
 [FA] | [FA]>[EG][DF] [DF][DE]D | [GB]>[GB][GB] [FA]2 [FA] | [FA]>[EG][DF] [DF][EG][DF] | %4
w: 1.~A|won- der- ful Sav- ior is|Je- sus my Lord, A|won- der- ful Sav- ior to|
w: 2.~A|won- der- ful Sav- ior is|Je- sus my Lord, He|tak- eth my bur- den a-|
w: 3.~With|num- ber- less bless- ings each|mo- ment He crowns, And|filled with His full- ness di-|
w: 4.~When|clothed in His bright- ness, trans-|port- ed I rise To|meet Him in clouds of the|
 [CE]3- [CE]2 [GA] | [FA]>[EG][DF] [DF][DE]D | [GB]>[GB][GB] [Gd]2 [GB] | %7
w: me; * He|hid- eth my soul in the|cleft of the rock, Where|
w: way; * He|hold- eth me up, and I|shall not be moved, He|
w: vine, * I|sing in my rap- ture, oh,|glo- ry to God For|
w: sky, * His|per- fect sal- va- tion, His|won- der- ful love I’ll|
 [FA]>[FA][DA] [CA][CG][CE] | D3- D2 ||"^Refrain" A | [Gc]>[Gc][Gc] [Gc]2 [GB]/[Gc]/ | %11
w: riv- ers of plea- sure I|see. *|||
w: giv- eth me strength as my|day. *|He|hid- eth my soul in the|
w: such a Re- deem- er as|mine! *|||
w: shout with the mil- lions on|high. *|||
 [Fd]>[Ac][GB] [FA]2 [FA] | [EG][^DF][EG] [CE][CB][CA] | [DF]3- [DF]2 [FA] | %14
w: |||
w: cleft of the rock That|shad- ows a dry, thirst- y|land; * He|
w: |||
w: |||
 [Fd]>[Fd][Fd] [Fd]2 [Fd]/[Fd]/ | [Ge]>[Gd][Gd] [Gd]2 [GB] | [FA]>[FA][FA] [EA][FA][GA] | %17
w: |||
w: hid- eth my life with the|depths of His love, And|co- vers me there with His|
w: |||
w: |||
 A3 A2 [GB] | [FA]>[DF]D [CF]>[A,C][A,C] | [A,D]3- [A,D]2 |] %20
w: |||
w: hand, And co-|vers me there with His hand.||
w: |||
w: |||
V:2
 x | x6 | x6 | x6 | x6 | x6 | x6 | x6 | D3- D2 || x | x6 | x6 | x6 | x6 | x6 | x6 | x6 | %17
 (F2 G A2) x | x2 D x3 | x5 |] %20
V:3
 [D,A,] | [D,A,]>[D,A,][D,A,] [D,A,][D,G,][D,F,] | [G,,D]>[G,,D][G,,D] [D,D]2 [D,A,] | %3
 [D,A,]>[D,A,][D,A,] [D,A,][C,A,][D,A,] | [A,,A,]3- [A,,A,]2 [A,,C] | %5
 [D,D]>[D,A,][D,A,] [D,A,][D,G,][D,F,] | [G,,D]>[G,,D][G,,D] [G,,B,]2 [G,,D] | %7
 [A,,D]>[A,,A,][A,,F,] [A,,E,][A,,E,][A,,G,] | [D,F,]3- [D,F,]2 || A, | %10
 [A,E]>[A,E][A,E] [A,E]2 A,/A,/ | [D,A,]>[D,A,][D,D] [D,D]2 [D,A,] | %12
 [A,,A,][A,,A,][A,,A,] [A,,A,][A,,A,][A,,A,] | [D,A,]3- [D,A,]2 [D,A,] | %14
 [D,A,]>[D,A,][D,A,] [D,A,]2 [D,A,]/[D,A,]/ | [G,B,]>[G,B,][G,B,] [G,B,]2 [G,D] | %16
 [A,D]>[A,D][A,D] [A,,C][A,,D][A,,E] | ([D,D]2 [E,C] [F,D]2) [G,,D] | %18
 [A,,D]>[A,,A,][A,,F,] [A,,E,]>[A,,G,][A,,G,] | [D,F,]3- [D,F,]2 |] %20
V:4
 x | x6 | x6 | x6 | x6 | x6 | x6 | x6 | x5 || A, | x5 A,/A,/ | x6 | x6 | x6 | x6 | x6 | x6 | x6 | %18
 x6 | x5 |] %20

